papirus/16x16/apps/discord.svg

<svg height="16" viewBox="0 0 16 16" width="16" xmlns="http://www.w3.org/2000/svg"><g transform="translate(0 -1036.3622)"><path d="m2.6152344 0c-.8949231 0-1.6152344.72031125-1.6152344 1.6152344v10.7695316c0 .894923.7203113 1.615234 1.6152344 1.615234h9.3847656l3 2v-3.615234-.384766-10.3847656c0-.89492315-.720311-1.6152344-1.615234-1.6152344z" fill="#7289da" transform="translate(0 1036.3622)"/><path d="m6.359375 3c0 0-1.3981981-.0286531-2.8789062.9980469 0 0-1.4804688 2.4871812-1.4804688 5.5507812 0 0 .8642364 1.3839719 3.1367188 1.4511719 0 0 .3809684-.422209.6894531-.787109-1.3059104-.3649004-1.8007813-1.1250004-1.8007813-1.1250004 0 0 .1020127.0678625.2871094.1640625.010238 0 .0224267.0135313.0429688.0195313.0308469.019.0609788.0298281.0917968.0488281.2570682.1345.5154402.2397719.7519532.3261719.4215952.1632.9236503.3065093 1.5097656.4121096.7712117.1344 1.6769135.183972 2.6640625.013672.4832751-.0870004.9760971-.2124629 1.4902341-.4140629.359886-.1254.761998-.3070062 1.183594-.5664062 0 0-.514299.7793656-1.861328 1.1347651.308471.3552.677734.767579.677734.767579 2.272475-.067 3.136719-1.4510066 3.136719-1.4414066 0-3.0637-1.480469-5.5507813-1.480469-5.5507813-1.470423-1.0276-2.878906-.9980469-2.878906-.9980469l-.1445312.1523438c1.7480542.4898 2.5605472 1.2109375 2.5605472 1.2109375-1.069397-.5378-2.1188465-.8064094-3.0957035-.9121094-.740357-.076-1.4489318-.0584687-2.0761719.0195313-.061694 0-.1140873.0125312-.1757812.0195312-.3598942.039-1.2337398.1540688-2.3339844.6054688-.3804636.1536-.6054688.2675781-.6054688.2675781 0 0 .8424653-.7563937 2.6933594-1.2460937l-.1035156-.1171876zm-.359375 3c .5587303 0 1.0097327.4456 1 1 0 .5546-.4412697 1-1 1-.5489241 0-1-.4454-1-1 0-.5544.4412832-1 1-1zm4 0c .55873 0 1.009733.4456 1 1 0 .5546-.44127 1-1 1-.548924 0-1-.4454-1-1 0-.5544.441283-1 1-1z" fill="#fff" transform="translate(0 1036.3622)"/></g></svg>

<?xml version="1.0" encoding="UTF-8" standalone="no"?>
<!-- Created with Inkscape (http://www.inkscape.org/) -->

<svg
   xmlns:dc="http://purl.org/dc/elements/1.1/"
   xmlns:cc="http://creativecommons.org/ns#"
   xmlns:rdf="http://www.w3.org/1999/02/22-rdf-syntax-ns#"
   xmlns:svg="http://www.w3.org/2000/svg"
   xmlns="http://www.w3.org/2000/svg"
   xmlns:sodipodi="http://sodipodi.sourceforge.net/DTD/sodipodi-0.dtd"
   xmlns:inkscape="http://www.inkscape.org/namespaces/inkscape"
   width="16"
   height="16"
   viewBox="0 0 16 16"
   id="svg5061"
   version="1.1"
   inkscape:version="0.91 r13725"
   sodipodi:docname="discord.svg">
  <defs
     id="defs5063" />
  <sodipodi:namedview
     id="base"
     pagecolor="#ffffff"
     bordercolor="#666666"
     borderopacity="1.0"
     inkscape:pageopacity="0.0"
     inkscape:pageshadow="2"
     inkscape:zoom="1"
     inkscape:cx="7.6873315"
     inkscape:cy="9.981419"
     inkscape:document-units="px"
     inkscape:current-layer="layer1"
     showgrid="false"
     units="px"
     inkscape:window-width="1600"
     inkscape:window-height="847"
     inkscape:window-x="0"
     inkscape:window-y="0"
     inkscape:window-maximized="1" />
  <metadata
     id="metadata5066">
    <rdf:RDF>
      <cc:Work
         rdf:about="">
        <dc:format>image/svg+xml</dc:format>
        <dc:type
           rdf:resource="http://purl.org/dc/dcmitype/StillImage" />
        <dc:title />
      </cc:Work>
    </rdf:RDF>
  </metadata>
  <g
     inkscape:label="Layer 1"
     inkscape:groupmode="layer"
     id="layer1"
     transform="translate(0,-1036.3622)">
    <path
       style="opacity:1;fill:#7289da;fill-opacity:1;stroke:none;stroke-width:16;stroke-linecap:round;stroke-linejoin:miter;stroke-miterlimit:4;stroke-dasharray:none;stroke-opacity:1"
       d="M 2.6152344,0 C 1.7203113,0 1,0.72031125 1,1.6152344 L 1,12.384766 C 1,13.279689 1.7203113,14 2.6152344,14 L 12,14 15,16 15,12.384766 15,12 15,1.6152344 C 15,0.72031125 14.279689,0 13.384766,0 Z"
       transform="translate(0,1036.3622)"
       id="rect4468"
       inkscape:connector-curvature="0"
       sodipodi:nodetypes="ssssccccsss" />
    <path
       style="fill:#ffffff"
       d="M 6.359375 3 C 6.359375 3 4.9611769 2.9713469 3.4804688 3.9980469 C 3.4804688 3.9980469 2 6.4852281 2 9.5488281 C 2 9.5488281 2.8642364 10.9328 5.1367188 11 C 5.1367188 11 5.5176872 10.577791 5.8261719 10.212891 C 4.5202615 9.8479906 4.0253906 9.0878906 4.0253906 9.0878906 C 4.0253906 9.0878906 4.1274033 9.1557531 4.3125 9.2519531 C 4.322738 9.2519531 4.3349267 9.2654844 4.3554688 9.2714844 C 4.3863157 9.2904844 4.4164476 9.3013125 4.4472656 9.3203125 C 4.7043338 9.4548125 4.9627058 9.5600844 5.1992188 9.6464844 C 5.620814 9.8096844 6.1228691 9.9529937 6.7089844 10.058594 C 7.4801961 10.192994 8.3858979 10.242566 9.3730469 10.072266 C 9.856322 9.9852656 10.349144 9.8598031 10.863281 9.6582031 C 11.223167 9.5328031 11.625279 9.3511969 12.046875 9.0917969 C 12.046875 9.0917969 11.532576 9.8711625 10.185547 10.226562 C 10.494018 10.581762 10.863281 10.994141 10.863281 10.994141 C 13.135756 10.927141 14 9.5431344 14 9.5527344 C 14 6.4890344 12.519531 4.0019531 12.519531 4.0019531 C 11.049108 2.9743531 9.640625 3.0039062 9.640625 3.0039062 L 9.4960938 3.15625 C 11.244148 3.64605 12.056641 4.3671875 12.056641 4.3671875 C 10.987244 3.8293875 9.9377945 3.5607781 8.9609375 3.4550781 C 8.2205805 3.3790781 7.5120057 3.3966094 6.8847656 3.4746094 C 6.8230716 3.4746094 6.7706783 3.4871406 6.7089844 3.4941406 C 6.3490902 3.5331406 5.4752446 3.6482094 4.375 4.0996094 C 3.9945364 4.2532094 3.7695312 4.3671875 3.7695312 4.3671875 C 3.7695312 4.3671875 4.6119965 3.6107938 6.4628906 3.1210938 L 6.359375 3.0039062 L 6.359375 3 z M 6 6 C 6.5587303 6 7.0097327 6.4456 7 7 C 7 7.5546 6.5587303 8 6 8 C 5.4510759 8 5 7.5546 5 7 C 5 6.4456 5.4412832 6 6 6 z M 10 6 C 10.55873 6 11.009733 6.4456 11 7 C 11 7.5546 10.55873 8 10 8 C 9.451076 8 9 7.5546 9 7 C 9 6.4456 9.441283 6 10 6 z "
       transform="translate(0,1036.3622)"
       id="path4141" />
  </g>
</svg>
